svg/immich-public-proxy-light.svg

<svg xmlns="http://www.w3.org/2000/svg" xml:space="preserve" viewBox="0 0 512 512"><path d="m471.7 76.2-.1-11-10.9-.8C356.3 56.9 261.8 4 260.9 3.5L254.8 0l-6 3.6c-.9.5-86.2 51.9-197.5 60.8l-10.9.9-.1 10.9c-.7 113 12.1 192.6 41.8 258 32.2 70.9 85.2 126.3 166.8 174.2l6 3.5 6.1-3.6c40.3-23.7 73.3-49.3 100.9-78.2 27.5-28.8 48.9-60.2 65.6-96.2 30.9-66.7 44.9-148.6 44.2-257.7m-47.4 199.5c-53.3 3.7-95.7.5-141.2-6 42.4-56.3 78.7-116.6 88.6-196.9 23.7 6.4 49.5 11.7 76.4 14.4-.2 73.7-7.7 135.6-23.8 188.5M64.1 87c17.5-1.8 34.3-4.6 50.2-8 50.7 24.8 100.8 50.3 138.4 96.4-97.6 30.8-129.8 65.3-167 99.5-14.9-52-21.5-113.3-21.6-187.9m76.1-14.1C198 57.5 240 35.8 255.1 27.4c14 7.4 50.7 25.5 98.6 40.2-5.7 53.7-25.9 101.7-52.8 146-40-67-95.5-111.6-160.7-140.7m65.2 139.2c1.5 100.1 11.8 189.8 97.3 239.7-14.7 11.4-30.5 22.2-47.7 32.6C172 434.4 120.4 377 92.1 295c32.3-34.8 66.7-59.4 113.3-82.9M314.8 442c-68.3-38.4-78.5-104-90.7-168.8 65.7 20.9 130.3 25.3 194.5 19.7-21.4 60.2-55.2 108.3-103.8 149.1" style="fill:#fff"/></svg>

<?xml version="1.0" encoding="utf-8"?>
<!-- Generator: Adobe Illustrator 28.2.0, SVG Export Plug-In . SVG Version: 6.00 Build 0)  -->
<svg version="1.1"
	 id="svg1" xmlns:svg="http://www.w3.org/2000/svg" xmlns:sodipodi="http://sodipodi.sourceforge.net/DTD/sodipodi-0.dtd" xmlns:inkscape="http://www.inkscape.org/namespaces/inkscape" inkscape:export-filename="export shield logo.png"
	 xmlns="http://www.w3.org/2000/svg" xmlns:xlink="http://www.w3.org/1999/xlink" x="0px" y="0px" viewBox="0 0 512 512"
	 style="enable-background:new 0 0 512 512;" xml:space="preserve">
<style type="text/css">
	.st0{display:none;fill:none;stroke:#FFFFFF;stroke-width:23.7586;stroke-miterlimit:15.1181;}
	.st1{fill:#FFFFFF;}
</style>
<path id="path9" inkscape:label="Outline white" sodipodi:nodetypes="ccccc" class="st0" d="M254.9,13.8c0,0-87,53.2-202.7,62.5
	c-1.4,206.3,42.4,327.8,202.7,421.9c156.7-92,206.3-218.5,204.8-421.9C351.2,68.4,254.9,13.8,254.9,13.8z"/>
<path class="st1" d="M471.7,76.2l-0.1-11l-10.9-0.8C356.3,56.9,261.8,4,260.9,3.5L254.8,0l-6,3.6c-0.9,0.5-86.2,51.9-197.5,60.8
	l-10.9,0.9l-0.1,10.9c-0.7,113,12.1,192.6,41.8,258c32.2,70.9,85.2,126.3,166.8,174.2l6,3.5l6.1-3.6c40.3-23.7,73.3-49.3,100.9-78.2
	c27.5-28.8,48.9-60.2,65.6-96.2C458.4,267.2,472.4,185.3,471.7,76.2z M424.3,275.7c-53.3,3.7-95.7,0.5-141.2-6
	c42.4-56.3,78.7-116.6,88.6-196.9c23.7,6.4,49.5,11.7,76.4,14.4C447.9,160.9,440.4,222.8,424.3,275.7z M64.1,87
	c17.5-1.8,34.3-4.6,50.2-8c50.7,24.8,100.8,50.3,138.4,96.4c-97.6,30.8-129.8,65.3-167,99.5C70.8,222.9,64.2,161.6,64.1,87z
	 M140.2,72.9C198,57.5,240,35.8,255.1,27.4c14,7.4,50.7,25.5,98.6,40.2c-5.7,53.7-25.9,101.7-52.8,146
	C260.9,146.6,205.4,102,140.2,72.9z M205.4,212.1c1.5,100.1,11.8,189.8,97.3,239.7C288,463.2,272.2,474,255,484.4
	C172,434.4,120.4,377,92.1,295C124.4,260.2,158.8,235.6,205.4,212.1z M314.8,442c-68.3-38.4-78.5-104-90.7-168.8
	c65.7,20.9,130.3,25.3,194.5,19.7C397.2,353.1,363.4,401.2,314.8,442z"/>
</svg>
